badge-account.svg

<svg fill="currentColor" viewBox="0 0 24 24"><path d="M17 3h-3v3h-4V3H7a2 2 0 0 0-2 2v16a2 2 0 0 0 2 2h10a2 2 0 0 0 2-2V5a2 2 0 0 0-2-2m-5 5a2 2 0 0 1 2 2 2 2 0 0 1-2 2 2 2 0 0 1-2-2 2 2 0 0 1 2-2m4 8H8v-1c0-1.33 2.67-2 4-2s4 .67 4 2zM13 5h-2V1h2zm3 14H8v-1h8zm-4 2H8v-1h4z"/></svg>

<svg  viewBox="0 0 24 24" fill="currentColor"><path  d="M17,3H14V6H10V3H7A2,2 0 0,0 5,5V21A2,2 0 0,0 7,23H17A2,2 0 0,0 19,21V5A2,2 0 0,0 17,3M12,8A2,2 0 0,1 14,10A2,2 0 0,1 12,12A2,2 0 0,1 10,10A2,2 0 0,1 12,8M16,16H8V15C8,13.67 10.67,13 12,13C13.33,13 16,13.67 16,15V16M13,5H11V1H13V5M16,19H8V18H16V19M12,21H8V20H12V21Z"/></svg>
